simple/miro.svg

<svg viewBox="0 0 24 24" xmlns="http://www.w3.org/2000/svg"><path d="M17.392 0h-3.5l3.1 4.808L10.43 0h-3.5l3.1 6.3L3.47 0h-3.5l3.05 8.13 -3.05 15.86h3.49l6.55-17.015L6.91 23.99h3.49l6.55-18.506 -3.11 18.506h3.49l6.6-20.328 -6.61-3.68Z"/></svg>

<svg role="img" viewBox="0 0 24 24" xmlns="http://www.w3.org/2000/svg"><title>Miro</title><path d="M17.392 0H13.9L17 4.808 10.444 0H6.949l3.102 6.3L3.494 0H0l3.05 8.131L0 24h3.494L10.05 6.985 6.949 24h3.494L17 5.494 13.899 24h3.493L24 3.672 17.392 0z"/></svg>
